X: 167
T:The Blessings of Silver
M:2/2
L:1/8
C:Ed Reavy
S:The Collected Compositions of Ed Reavy
R:Reel
N:Written for Lou and Mary Quinn's
N:twenty-fifth wedding anniversary. Ed loved the connotations of
N:the title: the blessings of twenty-five years of marriage, the
N:blessings of a couple growing old together, and the many rewards
N:of family life. Ed admired Lou not only because of his musical
N:talent, but also because he was a self-made man who set high standards
N:
N:for other immigrants who followed him to the New World.
Z:Joseph Reavy
K:Bb
G/2A/2|BdBF DGGF|(3D=EF CF DFCF|DGGA Bcdg|g^fdg fdcA|Bdce dcBA|DGBG ^FD
CA,|DGGA Bcdg|^fdcA G3:||
g|bfa^f gfdc|=Bcd=e fdcd|bga=e f2 ge|fdcA BG[G,G]g|(3bag (3ag^f gfdc|=Bc
d=e fefa|gbag ^fag=e|1=fdcA BGG:|2=fdcA BGG||
<end>
<start>
